X:33
T:Mill Mill O,The,aka. AJH.033
T:Deadly Wars,The,aka. AJH.033
M:2/4
L:1/8
Q:1/4=120
S:A.J.Hughes MS
C:untitled in MS
N:No key sig given, but D fits the usual tune.
O:England
A:North shropshire
W:There are some bars missing.
Z:Neil Brookes 2006
K:D
def2|A2A2|dc BA|Bce2|def2|a2gf|ed B>c|d3::!
A|de fg|a2a2|ba gf|e2d2|[Ad]e fg|ab ag|f2a2|!
de fg|a2a2|ba g/f/e|de f2|a2gf|ed B>c|d3:|

